_includes/svgs/linkedin-logo.svg

<svg width="40px" height="40px" viewBox="0 0 60 60" version="1.1" xmlns="http://www.w3.org/2000/svg" xmlns:xlink="http://www.w3.org/1999/xlink" xmlns:sketch="http://www.bohemiancoding.com/sketch/ns">
  <path d="M0.449161376,30 C0.449161376,13.4314567 13.6795217,0 30,0 C46.3204783,0 59.5508386,13.4314567 59.5508386,30 C59.5508386,46.5685433 46.3204783,60 30,60 C13.6795217,60 0.449161376,46.5685433 0.449161376,30 Z M0.449161376,30" fill="#007BB6" sketch:type="MSShapeGroup"></path>
  <path d="M22.4680392,23.7098144 L15.7808366,23.7098144 L15.7808366,44.1369537 L22.4680392,44.1369537 L22.4680392,23.7098144 Z M22.4680392,23.7098144" id="Path" fill="#FFFFFF" sketch:type="MSShapeGroup"></path>
  <path d="M22.9084753,17.3908761 C22.8650727,15.3880081 21.4562917,13.862504 19.1686418,13.862504 C16.8809918,13.862504 15.3854057,15.3880081 15.3854057,17.3908761 C15.3854057,19.3522579 16.836788,20.9216886 19.0818366,20.9216886 L19.1245714,20.9216886 C21.4562917,20.9216886 22.9084753,19.3522579 22.9084753,17.3908761 Z M22.9084753,17.3908761" id="Path" fill="#FFFFFF" sketch:type="MSShapeGroup"></path>
  <path d="M46.5846502,32.4246563 C46.5846502,26.1503226 43.2856534,23.2301456 38.8851658,23.2301456 C35.3347011,23.2301456 33.7450983,25.2128128 32.8575489,26.6036896 L32.8575489,23.7103567 L26.1695449,23.7103567 C26.2576856,25.6271338 26.1695449,44.137496 26.1695449,44.137496 L32.8575489,44.137496 L32.8575489,32.7292961 C32.8575489,32.1187963 32.9009514,31.5097877 33.0777669,31.0726898 C33.5610713,29.8530458 34.6614937,28.5902885 36.5089747,28.5902885 C38.9297703,28.5902885 39.8974476,30.4634101 39.8974476,33.2084226 L39.8974476,44.1369537 L46.5843832,44.1369537 L46.5846502,32.4246563 Z M46.5846502,32.4246563" id="Path" fill="#FFFFFF" sketch:type="MSShapeGroup"></path>
  <path d="M59.5508386,30 C59.5508386,46.5685433 46.3204783,60 30,60 C23.9471212,60 18.3192858,58.1525134 13.6339051,54.9827754 L47.4941264,5.81941103 C54.8060245,11.2806503 59.5508386,20.0777973 59.5508386,30 Z M59.5508386,30" id="reflec" fill-opacity="0.08" fill="#000000" sketch:type="MSShapeGroup"></path>
</svg>

<svg width="40" height="40" viewBox="0 0 60 60" xmlns="http://www.w3.org/2000/svg"><path d="M.45 30C.45 13.43 13.68 0 30 0s29.55 13.43 29.55 30S46.32 60 30 60 .45 46.57.45 30zm0 0" fill="#007BB6"/><path d="M22.468 23.71H15.78v20.427h6.688V23.71zm0 0M22.908 17.39c-.043-2.002-1.452-3.527-3.74-3.527-2.287 0-3.783 1.525-3.783 3.528 0 1.962 1.452 3.532 3.697 3.532h.043c2.33 0 3.783-1.57 3.783-3.53zm0 0M46.585 32.425c0-6.275-3.3-9.195-7.7-9.195-3.55 0-5.14 1.983-6.027 3.374V23.71H26.17c.088 1.917 0 20.427 0 20.427h6.688V32.73c0-.61.043-1.22.22-1.657.483-1.22 1.583-2.483 3.43-2.483 2.422 0 3.39 1.873 3.39 4.618v10.93h6.686V32.424zm0 0" fill="#fff"/><path d="M59.55 30c0 16.57-13.23 30-29.55 30-6.053 0-11.68-1.847-16.366-5.017L47.494 5.82C54.806 11.28 59.55 20.077 59.55 30zm0 0" fill-opacity=".08"/></svg>
